X: 68
T: I Have Caused Them to Roam
C: Teton Sioux band 1911-1914
N: Derived from sioux068.krn
O: South Dakota, U.S.A.
N: Teton Sioux Music by Frances Densmore, 1918
Z: transcribed to **kern format by Craig Sapp
L: 1/8
M: 4/8
Q: 1/4=58
K: C clef=bass
%%linebreak <none>
G, [I:setbarnb 1]| 
E3D ||  
[M:5/8]D2>C2 C | 
C4C ||  
[M:4/8]E3D ||  
[M:5/8]D2>C2 C ||  
[M:4/8]C4 ||  
[M:3/8]C C D | 
D3 | 
C C C ||  
[M:4/8]D3C ||  
[M:5/8]C2>G,2 G, | 
G,4G, ||  
[M:4/8]D3C ||  
[M:5/8]C2>G,2 G, | 
G,4D, ||  
[M:4/8]E,3D, ||  
[M:5/8]D,2>C,2 C, | 
C,4C, ||  
[M:4/8]D,3C, ||  
[M:5/8]C,2>G,,2 G,, | 
G,,3z2 |]  



